X:16027
T:Parnell's March
R:March
C:Trad.
O:Ireland
Z:Paul Hardy's Session Tunebook 2022 (see www.paulhardy.net). Creative Commons cc by-nc-sa licenced.
M:6/8
L:1/8
Q:3/8=110
K:G
d2 c|"G"B2A B2c|"D7"d2d d2c|"G"B2A B2c|"D7"d2d d2c|"G"B2G B2d|"Em"e2d B2G|"A"A2d ^c2d|A2d ^c2d|
"G"B2A B2c|d2d d2B|"C"c2d e2f|g2g f2e|"G"d2 B GAB|"Am"c2A FGA|"D7"ABA G2F|"G"G2 g g2 f||
"C"e2c c2c|c2e gfe|"G"d2B B2B|B2 z B2c|d2d ^c2d|"Em"e2d B2G|"A"A2d ^c2d|A2d ^c2d|
"G"B2A B2 c|d2d d2 B|"C"c2d e2f|g2g f2e|"G"d2B GAB|"Am"c2A FGA|"D7"ABA G2F|"G"G2G|]

